X: 1008
T: Washington County
C:Mark W. Sheafe, 1910
B: jims roots
M:C|
L:1/8
Q: 1/4=100
K:A
V:1 
EFG || "A"A2G2 F2G2 | F=F E3E FG | A2G2 F2=G2 | "E7"^G=G ^G3 G A^A |
B2A2 G2 FG | F=F E3 G A^A | B2^A2 B2 ^B2 | "A"cAGF EEFG |
A2G2 F2G2 | F=FE3 E FG | A2G2 "A7"A3^A | "D"BA F3 F ^EF |
B2A2 "D#"G2 F2 | "A"GA "F#7"E3 E ^DE | "B7"F3A  "E7"G2E2 | "A"A4- A2|]
% abcbook-tune_id 6298c297b561b2df86c86ab3


% abcbook-boost 0
% abcbook-tablature 
% abcbook-transpose 
% abcbook-lastupdated 1654178456652
% abcbook-soundfonts 
% abcbook-repeats 1


